!!!COM: Anon.
!!!OCL: Francis James Child
!!!OPR: The English and Scottish Popular Ballads
!!!OVM: Vol. 1
!!!ONB: Ballad No. 31, Tune No. 1
!!!ONM: No. 31
!!!PDT: 1882
!!!YEM: Public domain.
**kern
*M3/4
{4d
=1
2d
4f#
=2
2a
4a
=3
8g
4.g
4e
=4
2e}
!! Second phrase:
{4d
=5
4d
4f#
4a
=6
4a
4b
4cc
=7
4b
4g
4g
=8
2a;}
!! Third phrase:
{4d
=9
4d
4f#
4a
=10
4a
4a
4a
=11
4b
4a
4g
=12
2a;}
!! Fourth phrase:
{4a
=13
4a
4dd
4f#
=14
4f#
4a;
8r
8a
=15
4g
4d
4d
=16
2g}
!! Fifth phase:
{4g
=17
4g
4g
4g
=18
2e}
!! Sixth phrase:
{4b
=19
4b
4dd
4g
=20
4f#
4a;
4g
=21
4f#
4f#
4e
=22
2d}
====
*-
!!!OCY: Britain; England
!!!PPP: Boston
!!!ODT: <1882
!!!AFR: folk song
!!!AST: monophony
!!!AMT: simple triple
!!!SCA: Child Collection
!!!AIN: vox
!!!EEV: 1.0
!!!RDT: 1987 June
!!!YER: 1994 August 10
!!!VTS: 652652838
